public/piece/icpieces/wN.svg

<svg xmlns="http://www.w3.org/2000/svg" width="368" height="368"><path d="M115 336h194c0-8.19 1.089-17.253-2.133-25-2.313-5.559-7.493-8.802-8.566-15-4.424-25.547-8.625-50.797-14.928-76-4.048-16.19-8.696-33.262-16.682-48-10.933-20.18-27.917-37.559-45.691-51.8-5.268-4.221-13.282-7.942-17.272-13.384-4.566-6.228-4.096-17.744-13.732-19.378-7.265-1.231-8.512 8.47-14.996 8.016-7.399-.52-8.893-11.1-17.999-7.444-7.207 2.894-10.228 11.469-15.055 16.99-9.413 10.767-21.186 20.996-28.98 33-3.647 5.617-3.719 12.297-6.932 18-9.703 17.226-29.74 28.561-33.418 49-1.432 7.955-1.961 19.355.947 27C78.63 245.318 96.06 255.04 110 251.756c9.159-2.157 16.545-10.242 24-15.601 6.947-4.993 14.62-8.005 22-12.159 8.172-4.6 15.417-10.134 22.996-15.613 3.144-2.273 6.62-4.291 8.286.652 1.585 4.699-1.41 10.04-3.736 13.965-6.204 10.471-14.992 19.445-23.546 28-10.017 10.018-21.248 19.859-28.768 32-3.153 5.092-3.876 10.797-6.535 16-2.599 5.084-7.188 8.268-8.769 14-1.99 7.218-.928 15.575-.928 23z" style="fill:#000;stroke:none"/><path d="M160 98c-7.441 8.988-14.318 18.277-22.169 27-5.248 5.831-11.636 11.456-15.977 18-4.534 6.835-4.373 15.249-9.534 22-6.007 7.859-12.687 15.316-18.931 23-3.612 4.445-7.562 8.491-9.389 14 3.08.002 7.026-.525 9.768 1.179 3.038 1.889 3.039 5.753 0 7.642C90.57 212.808 85.598 212 82 212c0 9.04-.332 15.897 6 23 4.73-3.332 11.855-14.351 17.998-14.039 2.518.129 5.019 2.689 7.002 4.039-5.141 5.141-10.807 10.048-15 16 12.918 3.076 20.151-6.174 30-12.975 11.513-7.948 24.641-12.932 36-21.177 5.061-3.674 13.547-13.186 20-13.468 3.145-.137 5.912 2.616 7.956 4.663 7.498 7.511 6.982 16.85 2.721 25.957-8.955 19.139-27.634 33.802-41.767 49-7.139 7.678-15.285 15.156-16.91 26h152c-.121-14.654-4.136-29.68-7-44-6.109-30.551-12.517-65.517-31.478-91-10.118-13.597-22.386-25.73-35.522-36.389-3.874-3.143-7.819-6.19-12-8.916-2.674-1.743-6.218-3.241-7.987-6.024-2.18-3.43-2.569-8.798-4.013-12.671-7.709 3.41-14.35 8.964-22.961 3.772-2.591-1.562-4.667-3.918-7.039-5.772z" style="fill:#fff;stroke:none"/><path d="M208 143c2.447 5.789 6.846 10.772 10.333 16 6.446 9.664 12.84 19.509 17.883 30 7.803 16.232 13.802 33.332 17.335 51 1.724 8.619 1.853 17.404 3.449 26h11c0-32.978-12.801-69.344-32.152-96-7.513-10.349-16.631-20.609-27.848-27m-56 14h-18c-2.065.004-5.498-.527-7.164 1.028-3.372 3.146 2.205 11.441 6.179 11.065 2.591-.245 4.9-2.644 6.985-3.993 4.191-2.709 8.707-4.258 12-8.1z" style="fill:#000;stroke:none"/><path d="M125 326h174c-.014-5.171-.052-10.914-4.225-14.682-3.004-2.714-7.011-2.316-10.775-2.318H159c-7 0-14.001-.045-21 .001-3.823.025-7.649.162-10.297 3.343-3.114 3.741-2.7 9.109-2.703 13.656z" style="fill:#fff;stroke:none"/></svg>

<?xml version="1.0" standalone="yes"?>
<svg xmlns="http://www.w3.org/2000/svg" width="368" height="368">
<path style="fill:#000000; stroke:none;" d="M115 336L309 336C309 327.81 310.089 318.747 306.867 311C304.554 305.441 299.374 302.198 298.301 296C293.877 270.453 289.676 245.203 283.373 220C279.325 203.81 274.677 186.738 266.691 172C255.758 151.82 238.774 134.441 221 120.2C215.732 115.979 207.718 112.258 203.728 106.816C199.162 100.588 199.632 89.0719 189.996 87.4383C182.731 86.2065 181.484 95.9088 175 95.4537C167.601 94.9343 166.107 84.3537 157.001 88.01C149.794 90.9037 146.773 99.4788 141.946 105C132.533 115.767 120.76 125.996 112.966 138C109.319 143.617 109.247 150.297 106.034 156C96.3309 173.226 76.2943 184.561 72.6157 205C71.184 212.955 70.655 224.355 73.5633 232C78.6293 245.318 96.0595 255.04 110 251.756C119.159 249.599 126.545 241.514 134 236.155C140.947 231.162 148.62 228.15 156 223.996C164.172 219.396 171.417 213.862 178.996 208.383C182.14 206.11 185.616 204.092 187.282 209.035C188.867 213.734 185.872 219.075 183.546 223C177.342 233.471 168.554 242.445 160 251C149.983 261.018 138.752 270.859 131.232 283C128.079 288.092 127.356 293.797 124.697 299C122.098 304.084 117.509 307.268 115.928 313C113.938 320.218 115 328.575 115 336z"/>
<path style="fill:#ffffff; stroke:none;" d="M160 98C152.559 106.988 145.682 116.277 137.831 125C132.583 130.831 126.195 136.456 121.854 143C117.32 149.835 117.481 158.249 112.32 165C106.313 172.859 99.6328 180.316 93.3889 188C89.7767 192.445 85.8272 196.491 84 202C87.0808 202.002 91.0264 201.475 93.7677 203.179C96.8064 205.068 96.8068 208.932 93.7677 210.821C90.5709 212.808 85.598 212 82 212C82 221.04 81.6682 227.897 88 235C92.7306 231.668 99.8554 220.649 105.998 220.961C108.516 221.09 111.017 223.65 113 225C107.859 230.141 102.193 235.048 98 241C110.918 244.076 118.151 234.826 128 228.025C139.513 220.077 152.641 215.093 164 206.848C169.061 203.174 177.547 193.662 184 193.38C187.145 193.243 189.912 195.996 191.956 198.043C199.454 205.554 198.938 214.893 194.677 224C185.722 243.139 167.043 257.802 152.91 273C145.771 280.678 137.625 288.156 136 299L288 299C287.879 284.346 283.864 269.32 281 255C274.891 224.449 268.483 189.483 249.522 164C239.404 150.403 227.136 138.27 214 127.611C210.126 124.468 206.181 121.421 202 118.695C199.326 116.952 195.782 115.454 194.013 112.671C191.833 109.241 191.444 103.873 190 100C182.291 103.41 175.65 108.964 167.039 103.772C164.448 102.21 162.372 99.8543 160 98z"/>
<path style="fill:#000000; stroke:none;" d="M208 143C210.447 148.789 214.846 153.772 218.333 159C224.779 168.664 231.173 178.509 236.216 189C244.019 205.232 250.018 222.332 253.551 240C255.275 248.619 255.404 257.404 257 266L268 266C268 233.022 255.199 196.656 235.848 170C228.335 159.651 219.217 149.391 208 143M152 157L134 157C131.935 157.004 128.502 156.473 126.836 158.028C123.464 161.174 129.041 169.469 133.015 169.093C135.606 168.848 137.915 166.449 140 165.1C144.191 162.391 148.707 160.842 152 157z"/>
<path style="fill:#ffffff; stroke:none;" d="M125 326L299 326C298.986 320.829 298.948 315.086 294.775 311.318C291.771 308.604 287.764 309.002 284 309L263 309L159 309C152 309 144.999 308.955 138 309.001C134.177 309.026 130.351 309.163 127.703 312.344C124.589 316.085 125.003 321.453 125 326z"/>
</svg>
